flaticon/emoticons/angry-4.svg

<svg xmlns="http://www.w3.org/2000/svg" width="32" height="32" viewBox="0 0 24 24">
    <path d="M 12 0 C 6.054688 0 1.21875 4.835938 1.21875 10.78125 L 1.21875 15.246094 C 1.21875 15.25 1.21875 15.25 1.21875 15.25 C 1.21875 15.25 1.21875 15.253906 1.21875 15.253906 L 1.21875 20.746094 C 1.21875 21.867188 2.132812 22.78125 3.253906 22.78125 L 5.917969 22.78125 C 5.9375 22.789062 5.957031 22.796875 5.976562 22.804688 C 7.402344 23.476562 9.121094 23.878906 11.078125 23.976562 C 11.121094 23.976562 11.164062 23.980469 11.210938 23.980469 C 11.46875 23.992188 11.730469 24 12 24 C 12.269531 24 12.53125 23.992188 12.792969 23.980469 C 12.835938 23.980469 12.878906 23.976562 12.921875 23.976562 C 14.878906 23.878906 16.597656 23.476562 18.023438 22.804688 C 18.042969 22.796875 18.0625 22.789062 18.082031 22.78125 L 20.746094 22.78125 C 21.867188 22.78125 22.78125 21.867188 22.78125 20.746094 L 22.78125 10.78125 C 22.78125 4.835938 17.945312 0 12 0 Z M 17.894531 21.964844 L 17.8125 22.007812 C 16.660156 22.566406 15.289062 22.929688 13.777344 23.089844 C 13.667969 23.101562 13.558594 23.113281 13.445312 23.125 C 13.285156 23.136719 13.125 23.148438 12.960938 23.15625 C 12.648438 23.175781 12.328125 23.1875 12 23.1875 C 11.671875 23.1875 11.351562 23.175781 11.039062 23.15625 C 10.875 23.148438 10.714844 23.136719 10.554688 23.121094 C 10.445312 23.113281 10.332031 23.101562 10.222656 23.089844 C 8.714844 22.929688 7.339844 22.566406 6.191406 22.007812 L 6.105469 21.964844 L 6.070312 21.964844 C 3.476562 20.65625 2.035156 18.34375 2.035156 15.253906 C 2.035156 15.253906 2.035156 15.25 2.035156 15.25 C 2.035156 15.25 2.035156 15.25 2.035156 15.246094 C 2.039062 10.019531 6.425781 5.550781 11.796875 5.289062 L 12.183594 5.289062 C 17.578125 5.550781 21.964844 10.023438 21.964844 15.253906 C 21.964844 18.34375 20.523438 20.65625 17.929688 21.964844 Z M 3.253906 21.964844 C 2.582031 21.964844 2.035156 21.417969 2.035156 20.746094 L 2.035156 19.027344 C 2.597656 20.195312 3.441406 21.1875 4.535156 21.964844 Z M 21.964844 20.746094 C 21.964844 21.417969 21.417969 21.964844 20.746094 21.964844 L 19.464844 21.964844 C 20.558594 21.1875 21.402344 20.195312 21.964844 19.027344 Z M 12.203125 4.472656 L 11.777344 4.476562 C 7.390625 4.691406 3.625 7.492188 2.035156 11.28125 L 2.035156 10.78125 C 2.035156 5.285156 6.503906 0.8125 12 0.8125 C 17.496094 0.8125 21.964844 5.285156 21.964844 10.78125 L 21.964844 11.265625 C 20.371094 7.484375 16.601562 4.6875 12.203125 4.472656 Z M 12.203125 4.472656"/>
    <path d="M10.167969 11.59375C10.167969 10.136719 8.984375 8.949219 7.527344 8.949219 6.066406 8.949219 4.882812 10.136719 4.882812 11.59375 4.882812 13.050781 6.066406 14.238281 7.527344 14.238281 8.984375 14.238281 10.167969 13.050781 10.167969 11.59375zM9.289062 12.054688C9.144531 11.667969 8.777344 11.390625 8.339844 11.390625 7.777344 11.390625 7.320312 11.84375 7.320312 12.40625 7.320312 12.84375 7.597656 13.214844 7.988281 13.359375 7.839844 13.394531 7.6875 13.421875 7.527344 13.421875 6.515625 13.421875 5.695312 12.601562 5.695312 11.59375 5.695312 10.585938 6.515625 9.761719 7.527344 9.761719 8.535156 9.761719 9.355469 10.585938 9.355469 11.59375 9.355469 11.753906 9.328125 11.90625 9.289062 12.054688zM16.472656 8.949219C15.015625 8.949219 13.832031 10.136719 13.832031 11.59375 13.832031 13.050781 15.015625 14.238281 16.472656 14.238281 17.933594 14.238281 19.117188 13.050781 19.117188 11.59375 19.117188 10.136719 17.933594 8.949219 16.472656 8.949219zM16.472656 13.421875C16.039062 13.421875 15.644531 13.265625 15.328125 13.007812 15.855469 12.96875 16.269531 12.535156 16.269531 12 16.269531 11.4375 15.816406 10.984375 15.253906 10.984375 15.050781 10.984375 14.863281 11.042969 14.707031 11.144531 14.90625 10.351562 15.621094 9.761719 16.472656 9.761719 17.484375 9.761719 18.304688 10.585938 18.304688 11.59375 18.304688 12.601562 17.484375 13.421875 16.472656 13.421875zM12 16.269531C9.644531 16.269531 7.730469 18.1875 7.730469 20.542969 7.730469 20.765625 7.910156 20.949219 8.136719 20.949219 8.359375 20.949219 8.542969 20.765625 8.542969 20.542969 8.542969 18.636719 10.09375 17.085938 12 17.085938 13.90625 17.085938 15.457031 18.636719 15.457031 20.542969 15.457031 20.765625 15.640625 20.949219 15.863281 20.949219 16.089844 20.949219 16.269531 20.765625 16.269531 20.542969 16.269531 18.1875 14.355469 16.269531 12 16.269531zM10.289062 9.644531C10.367188 9.722656 10.472656 9.761719 10.578125 9.761719 10.679688 9.761719 10.785156 9.722656 10.863281 9.644531 11.023438 9.484375 11.023438 9.226562 10.863281 9.066406L8.828125 7.035156C8.671875 6.875 8.414062 6.875 8.253906 7.035156 8.097656 7.195312 8.097656 7.449219 8.253906 7.609375zM13.421875 9.761719C13.527344 9.761719 13.632812 9.722656 13.710938 9.644531L15.746094 7.609375C15.902344 7.449219 15.902344 7.195312 15.746094 7.035156 15.585938 6.875 15.328125 6.875 15.171875 7.035156L13.136719 9.066406C12.976562 9.226562 12.976562 9.484375 13.136719 9.644531 13.214844 9.722656 13.320312 9.761719 13.421875 9.761719zM13.421875 9.761719"/>
</svg>

<svg xmlns="http://www.w3.org/2000/svg" width="32" height="32" viewBox="0 0 24 24">
    <path d="M12 0C6.055 0 1.219 4.836 1.219 10.781v9.965c0 1.121.914 2.035 2.035 2.035h2.664l.059.024c1.425.672 3.144 1.074 5.101 1.172.043 0 .086.003.133.003.258.012.52.02.789.02.27 0 .531-.008.793-.02l.129-.003c1.957-.098 3.676-.5 5.101-1.172l.059-.024h2.664a2.039 2.039 0 0 0 2.035-2.035v-9.965C22.781 4.836 17.945 0 12 0zm5.895 21.965l-.082.043c-1.153.558-2.524.922-4.036 1.082l-.332.035c-.16.012-.32.023-.484.031a15.386 15.386 0 0 1-2.406-.035 9.536 9.536 0 0 1-.332-.031c-1.508-.16-2.883-.524-4.032-1.082l-.086-.043H6.07c-2.593-1.309-4.035-3.621-4.035-6.711v-.004-.004c.004-5.226 4.39-9.695 9.762-9.957h.387c5.394.262 9.78 4.734 9.78 9.965 0 3.09-1.44 5.402-4.034 6.71zm-14.641 0a1.22 1.22 0 0 1-1.219-1.219v-1.719a7.663 7.663 0 0 0 2.5 2.938zm18.71-1.219a1.22 1.22 0 0 1-1.218 1.219h-1.281a7.663 7.663 0 0 0 2.5-2.938zm-9.76-16.273l-.427.004c-4.386.214-8.152 3.015-9.742 6.804v-.5C2.035 5.285 6.504.812 12 .812c5.496 0 9.965 4.473 9.965 9.97v.484c-1.594-3.782-5.363-6.579-9.762-6.793zm0 0"/>
    <path d="M10.168 11.594a2.646 2.646 0 0 0-2.64-2.645 2.647 2.647 0 0 0-2.645 2.645 2.647 2.647 0 0 0 2.644 2.644 2.646 2.646 0 0 0 2.641-2.644zm-.879.46a1.017 1.017 0 0 0-1.969.352c0 .438.278.809.668.953-.148.036-.3.063-.46.063a1.831 1.831 0 0 1-1.833-1.828c0-1.008.82-1.832 1.832-1.832 1.008 0 1.828.824 1.828 1.832a1.8 1.8 0 0 1-.066.46zm0 0M16.473 8.95a2.646 2.646 0 0 0 0 5.288 2.647 2.647 0 0 0 2.644-2.644 2.647 2.647 0 0 0-2.644-2.645zm0 4.472c-.434 0-.828-.156-1.145-.414a1.014 1.014 0 1 0-.621-1.863c.2-.793.914-1.383 1.766-1.383 1.011 0 1.832.824 1.832 1.832s-.82 1.828-1.832 1.828zm0 0M12 16.27a4.276 4.276 0 0 0-4.27 4.273.406.406 0 1 0 .813 0A3.46 3.46 0 0 1 12 17.086a3.46 3.46 0 0 1 3.457 3.457.406.406 0 1 0 .813 0A4.276 4.276 0 0 0 12 16.27zm0 0M10.29 9.645a.408.408 0 0 0 .573-.579l-2.035-2.03a.403.403 0 0 0-.574 0 .41.41 0 0 0 0 .573zm0 0M13.422 9.762c.105 0 .21-.04.289-.117l2.035-2.036a.41.41 0 0 0 0-.574.403.403 0 0 0-.574 0l-2.035 2.031a.408.408 0 0 0 .285.696zm0 0"/>
</svg>
